icons/24px/maintenance.svg

<svg width="24" height="24" viewBox="0 0 24 24" fill="none" xmlns="http://www.w3.org/2000/svg">
<path d="M21 6C21 7.65685 19.6569 9 18 9C17.5363 9 17.0971 8.89478 16.7051 8.70691C16.7014 8.71096 16.6975 8.71494 16.6936 8.71887L13.4133 11.9991L13.4162 12.002L12.002 13.4162L11.9991 13.4133L4.53137 20.8811C4.37516 21.0373 4.1219 21.0373 3.96569 20.8811L3.11716 20.0326C2.96095 19.8764 2.96095 19.6231 3.11716 19.4669L10.5849 11.9991L7.79289 9.20711L7.28284 9.71716C7.12663 9.87337 6.87337 9.87337 6.71716 9.71716L6 9V10.5062C6 10.9453 5.4692 11.1651 5.15876 10.8547L3.14532 8.84124C2.83488 8.5308 3.05475 8 3.49378 8H5L4.2835 7.28349C4.12703 7.12703 4.12732 6.87326 4.28415 6.71716L7.50807 3.50807C7.92604 3.16705 8.45289 3.00439 8.9994 3.00439C9.48737 3.00439 9.95969 3.13408 10.3528 3.40463C10.5335 3.52901 10.5319 3.78398 10.3775 3.93987L9.16459 5.16459L10.2172 6.21716C10.3734 6.37337 10.3734 6.62663 10.2172 6.78284L9.20711 7.79289L11.9991 10.5849L15.2794 7.30466C15.2835 7.30053 15.2877 7.29651 15.292 7.2926C15.1048 6.90117 15 6.46282 15 6C15 4.34315 16.3431 3 18 3C18.264 3 18.52 3.0341 18.7639 3.09812C19.0308 3.16819 19.0892 3.49701 18.894 3.69212L17.4648 5.12132L18.8791 6.53553L20.308 5.10655C20.5032 4.91142 20.832 4.96984 20.902 5.23677C20.966 5.48046 21 5.73626 21 6Z" fill="black"/>
<path d="M13.4162 14.8304L19.4688 20.8831C19.6251 21.0393 19.8783 21.0393 20.0345 20.8831L20.8831 20.0345C21.0393 19.8783 21.0393 19.6251 20.8831 19.4688L14.8304 13.4162L13.4162 14.8304Z" fill="black"/>
</svg>

<?xml version="1.0" encoding="UTF-8"?>
<svg id="Layer_1" data-name="Layer 1" xmlns="http://www.w3.org/2000/svg" viewBox="0 0 24 24">
  <defs>
    <style>
      .cls-1 {
        stroke-width: 0px;
      }
    </style>
  </defs>
  <path class="cls-1" d="m21,6c0,1.6568-1.3431,3-3,3-.4637,0-.9029-.1052-1.2949-.2931-.0037.0041-.0076.008-.0115.012l-3.2803,3.2802.0029.0029-1.4142,1.4142-.0029-.0029-7.4677,7.4678c-.1562.1562-.4095.1562-.5657,0l-.8485-.8485c-.1562-.1562-.1562-.4095,0-.5657l7.4677-7.4678-2.792-2.792-.5101.51c-.1562.1562-.4095.1562-.5657,0l-.7172-.7172v1.5062c0,.4391-.5308.6589-.8412.3485l-2.0134-2.0135c-.3104-.3104-.0906-.8412.3485-.8412h1.5062l-.7165-.7165c-.1565-.1565-.1562-.4102.0006-.5663l3.2239-3.2091c.418-.341.9448-.5037,1.4913-.5037.488,0,.9603.1297,1.3534.4002.1807.1244.1791.3793.0247.5352l-1.2129,1.2247,1.0526,1.0526c.1562.1562.1562.4095,0,.5657l-1.0101,1.0101,2.792,2.792,3.2803-3.2802c.0041-.0041.0083-.0081.0126-.0121-.1872-.3914-.292-.8298-.292-1.2926,0-1.6568,1.3431-3,3-3,.264,0,.52.0341.7639.0981.2669.0701.3253.3989.1301.594l-1.4292,1.4292,1.4143,1.4142,1.4289-1.429c.1952-.1951.524-.1367.594.1302.064.2437.098.4995.098.7632Zm-7.5838,8.8304l6.0526,6.0527c.1563.1562.4095.1562.5657,0l.8486-.8486c.1562-.1562.1562-.4094,0-.5657l-6.0527-6.0526-1.4142,1.4142Z"/>
</svg>
